source/img/icon-vk.svg

<svg width="27" height="26" viewBox="0 0 27 26" fill="none" xmlns="http://www.w3.org/2000/svg">
<path d="M19.475 15.1271C18.3662 14.1029 18.287 14.1029 19.2374 12.9211C20.4254 11.4243 22.0095 9.53349 20.5838 9.53349H17.9701C17.4949 9.53349 17.4157 9.84862 17.2573 10.2425C16.6237 11.7394 15.3565 13.709 14.8812 13.3938C14.406 13.0787 14.6436 11.897 14.6436 10.0062C14.7228 9.76984 14.6436 9.53349 14.4852 9.37592C14.3268 9.21836 14.0892 9.06079 13.8516 9.06079C13.4556 8.98201 13.0596 8.90323 12.6636 8.90323C11.1587 8.90323 10.1291 9.53349 10.6835 9.61227C11.7131 9.76984 11.6339 11.9758 11.3963 12.9211C11.0003 14.5756 9.41624 11.6606 8.70342 10.1638C8.62421 9.76984 8.3074 9.53349 7.91139 9.53349H5.85212C5.53531 9.53349 5.2977 9.61227 5.2977 9.84862C5.2977 10.2425 7.27777 14.1029 9.09943 16.0724C10.9211 17.9632 12.7428 17.8057 14.01 17.8057C14.1684 17.8057 14.3268 17.7269 14.406 17.6481C14.4852 17.5693 14.5644 17.4118 14.5644 17.2542C14.5644 15.9937 15.0396 15.3634 15.9109 16.23C16.8613 17.1754 17.0989 17.8057 18.287 17.8057H20.4254C20.9799 17.8057 21.1383 17.6481 21.1383 17.4118C21.2175 16.8603 20.267 15.8361 19.475 15.1271ZM13.8516 0.000789162C21.2175 0.158354 27.0785 6.06705 26.9993 13.2363C26.9201 20.4055 20.8214 26.0778 13.4556 25.9991C6.01052 25.9203 0.0703125 20.1691 0.0703125 12.9999C0.149515 5.75192 6.32733 -0.0779935 13.8516 0.000789162Z" fill="#CDCDCD"/>
</svg>

<svg xmlns="http://www.w3.org/2000/svg" viewBox="0 0 27 26"  fill="none"><path d="M19.5 15.1c-1.1-1-1.2-1-.2-2.2 1.2-1.5 2.8-3.4 1.3-3.4H18c-.5 0-.6.3-.7.7-.6 1.5-1.9 3.5-2.4 3.2-.5-.3-.2-1.5-.2-3.4.1-.2 0-.5-.2-.6-.2-.2-.4-.3-.6-.3-.4-.1-.8-.2-1.2-.2-1.5 0-2.5.6-2 .7 1 .2 1 2.4.7 3.3-.4 1.7-2-1.3-2.7-2.8-.1-.3-.4-.6-.8-.6h-2c-.3 0-.6.1-.6.3 0 .4 2 4.3 3.8 6.2 1.8 1.9 3.6 1.7 4.9 1.7.2 0 .3-.1.4-.2s.2-.2.2-.4c0-1.3.5-1.9 1.3-1 1 .9 1.2 1.6 2.4 1.6h2.1c.6 0 .7-.2.7-.4.1-.4-.8-1.5-1.6-2.2z"/></svg>
